fileicons/icons/mxml.svg

<svg xmlns="http://www.w3.org/2000/svg" width="24" height="24" viewBox="0 0 24 24"><path d="M13 9h5.5L13 3.5V9M6 2h8l6 6v12a2 2 0 0 1-2 2H6a2 2 0 0 1-2-2V4c0-1.11.89-2 2-2m.12 13.5l3.74 3.74 1.42-1.41-2.33-2.33 2.33-2.33-1.42-1.41-3.74 3.74m11.16 0l-3.74-3.74-1.42 1.41 2.33 2.33-2.33 2.33 1.42 1.41 3.74-3.74z" fill="#ffa726"/></svg>

<?xml version="1.0" encoding="UTF-8" standalone="no"?>
<svg
   xmlns:dc="http://purl.org/dc/elements/1.1/"
   xmlns:cc="http://creativecommons.org/ns#"
   xmlns:rdf="http://www.w3.org/1999/02/22-rdf-syntax-ns#"
   xmlns:svg="http://www.w3.org/2000/svg"
   xmlns="http://www.w3.org/2000/svg"
   xmlns:sodipodi="http://sodipodi.sourceforge.net/DTD/sodipodi-0.dtd"
   xmlns:inkscape="http://www.inkscape.org/namespaces/inkscape"
   version="1.1"
   width="24"
   height="24"
   viewBox="0 0 24 24"
   id="svg2"
   inkscape:version="0.91 r13725"
   sodipodi:docname="mxml.svg">
  <metadata
     id="metadata10">
    <rdf:RDF>
      <cc:Work
         rdf:about="">
        <dc:format>image/svg+xml</dc:format>
        <dc:type
           rdf:resource="http://purl.org/dc/dcmitype/StillImage" />
      </cc:Work>
    </rdf:RDF>
  </metadata>
  <defs
     id="defs8" />
  <sodipodi:namedview
     pagecolor="#ffffff"
     bordercolor="#666666"
     borderopacity="1"
     objecttolerance="10"
     gridtolerance="10"
     guidetolerance="10"
     inkscape:pageopacity="0"
     inkscape:pageshadow="2"
     inkscape:window-width="737"
     inkscape:window-height="480"
     id="namedview6"
     showgrid="false"
     inkscape:zoom="9.8333333"
     inkscape:cx="12"
     inkscape:cy="11.79661"
     inkscape:window-x="737"
     inkscape:window-y="121"
     inkscape:window-maximized="0"
     inkscape:current-layer="svg2" />
  <path
     d="M13,9H18.5L13,3.5V9M6,2H14L20,8V20A2,2 0 0,1 18,22H6C4.89,22 4,21.1 4,20V4C4,2.89 4.89,2 6,2M6.12,15.5L9.86,19.24L11.28,17.83L8.95,15.5L11.28,13.17L9.86,11.76L6.12,15.5M17.28,15.5L13.54,11.76L12.12,13.17L14.45,15.5L12.12,17.83L13.54,19.24L17.28,15.5Z"
     id="path4"
     style="fill:#ffa726;fill-opacity:1" />
</svg>
